assets/social-dribbble.svg

<svg xmlns="http://www.w3.org/2000/svg" xml:space="preserve" width="39.967" height="40.016"><path fill="#FFF" d="M39.967 20.01c0 5.523-1.952 10.233-5.856 14.143-3.9 3.913-8.613 5.863-14.131 5.863-5.514 0-10.223-1.95-14.125-5.863C1.952 30.243 0 25.533 0 20.01S1.952 9.772 5.855 5.863Q11.709 0 19.98 0q8.278 0 14.131 5.863 5.856 5.862 5.856 14.147m-10.229 0c0-2.729-.939-5.037-2.832-6.937-1.889-1.887-4.195-2.836-6.926-2.836-2.723 0-5.03.949-6.918 2.836-1.893 1.899-2.842 4.207-2.842 6.937 0 2.726.949 5.042 2.842 6.933 1.888 1.896 4.195 2.837 6.918 2.837 2.73 0 5.037-.941 6.926-2.837 1.892-1.891 2.832-4.208 2.832-6.933m-15.89 5.395c-1.36-1.55-2.044-3.352-2.044-5.396v-.188a27 27 0 0 0 8.365-1.12c.249.435.432.84.56 1.214l-.187.094q-4.188 1.304-6.694 5.396m-1.766-7.167h-.094c.623-2.602 2.107-4.467 4.467-5.582a38 38 0 0 1 2.877 4.564c-2.477.682-4.899 1.018-7.25 1.018m9.293 3.262q1.211 3.16 1.676 6.048a7.6 7.6 0 0 1-3.07.651q-2.787 0-4.922-1.678c1.115-2.295 3.216-3.968 6.316-5.021m-.182-4.846a37 37 0 0 0-2.979-4.65 8.2 8.2 0 0 1 1.767-.183c2.046 0 3.814.646 5.299 1.95-.864 1.175-2.23 2.142-4.087 2.883m5.205-1.766c1.111 1.431 1.703 3.074 1.765 4.935a19.6 19.6 0 0 0-3.809-.37q-.936 0-1.767.09a.6.6 0 0 1-.139-.184.4.4 0 0 1-.049-.188 8 8 0 0 1-.468-1.12c1.985-.8 3.474-1.857 4.467-3.163m-1.674 6.054q1.762-.002 3.349.465c-.438 2.231-1.581 3.998-3.442 5.302-.248-1.793-.748-3.688-1.488-5.673a13 13 0 0 1 1.581-.094"/></svg>

<?xml version="1.0" encoding="utf-8"?>
<!-- Generator: Adobe Illustrator 16.0.0, SVG Export Plug-In . SVG Version: 6.00 Build 0)  -->
<!DOCTYPE svg PUBLIC "-//W3C//DTD SVG 1.1//EN" "http://www.w3.org/Graphics/SVG/1.1/DTD/svg11.dtd">
<svg version="1.1" id="Layer_1" xmlns="http://www.w3.org/2000/svg" xmlns:xlink="http://www.w3.org/1999/xlink" x="0px" y="0px"
	 width="39.967px" height="40.016px" viewBox="0 0 39.967 40.016" enable-background="new 0 0 39.967 40.016" xml:space="preserve">
<path fill="#FFFFFF" d="M39.967,20.01c0,5.523-1.952,10.233-5.856,14.143c-3.9,3.913-8.613,5.863-14.131,5.863
	c-5.514,0-10.223-1.95-14.125-5.863C1.952,30.243,0,25.533,0,20.01S1.952,9.772,5.855,5.863C9.757,1.955,14.466,0,19.98,0
	c5.518,0,10.23,1.955,14.131,5.863C38.015,9.772,39.967,14.486,39.967,20.01z M29.738,20.01c0-2.729-0.939-5.037-2.832-6.937
	c-1.889-1.887-4.195-2.836-6.926-2.836c-2.723,0-5.03,0.949-6.918,2.836c-1.893,1.899-2.842,4.207-2.842,6.937
	c0,2.726,0.949,5.042,2.842,6.933c1.888,1.896,4.195,2.837,6.918,2.837c2.73,0,5.037-0.941,6.926-2.837
	C28.798,25.052,29.738,22.735,29.738,20.01z M13.848,25.405c-1.36-1.55-2.044-3.352-2.044-5.396c0-0.063,0-0.123,0-0.188
	c2.852,0.064,5.637-0.307,8.365-1.12c0.249,0.435,0.432,0.84,0.56,1.214l-0.187,0.094C17.75,20.879,15.519,22.676,13.848,25.405z
	 M12.082,18.238h-0.094c0.623-2.602,2.107-4.467,4.467-5.582c1.051,1.426,2.008,2.946,2.877,4.564
	C16.855,17.902,14.433,18.238,12.082,18.238z M21.375,21.5c0.807,2.108,1.367,4.122,1.676,6.048
	c-0.994,0.434-2.014,0.651-3.07,0.651c-1.859,0-3.498-0.559-4.922-1.678C16.174,24.226,18.275,22.553,21.375,21.5z M21.193,16.654
	c-0.87-1.613-1.861-3.159-2.979-4.65c0.562-0.123,1.148-0.183,1.767-0.183c2.046,0,3.814,0.646,5.299,1.95
	C24.416,14.946,23.05,15.913,21.193,16.654z M26.398,14.888c1.111,1.431,1.703,3.074,1.765,4.935c-1.24-0.246-2.514-0.37-3.809-0.37
	c-0.625,0-1.212,0.029-1.767,0.09c-0.062-0.061-0.109-0.119-0.139-0.184c-0.031-0.06-0.049-0.123-0.049-0.188
	c-0.189-0.375-0.344-0.745-0.468-1.12C23.916,17.251,25.405,16.194,26.398,14.888z M24.724,20.942c1.174,0,2.292,0.153,3.349,0.465
	c-0.438,2.231-1.581,3.998-3.442,5.302c-0.248-1.793-0.748-3.688-1.488-5.673C23.637,20.973,24.167,20.942,24.724,20.942z"/>
</svg>
